docs/.vuepress/public/category-icon/elastic.svg

<?xml version="1.0" standalone="no"?><!DOCTYPE svg PUBLIC "-//W3C//DTD SVG 1.1//EN" "http://www.w3.org/Graphics/SVG/1.1/DTD/svg11.dtd"><svg t="1631068099934" class="icon" viewBox="0 0 1024 1024" version="1.1" xmlns="http://www.w3.org/2000/svg" p-id="11465" xmlns:xlink="http://www.w3.org/1999/xlink" width="200" height="200"><defs><style type="text/css"></style></defs><path d="M418.133333 454.4l192 87.466667 194.133334-170.666667c2.133333-14.933333 4.266667-27.733333 4.266666-42.666667 0-119.466667-96-217.6-217.6-217.6-72.533333 0-138.666667 34.133333-179.2 93.866667l-32 166.4 38.4 83.2zM407.466667 486.4l-189.866667 170.666667c-2.133333 14.933333-4.266667 29.866667-4.266667 42.666666C213.333333 819.2 311.466667 917.333333 430.933333 917.333333c72.533333 0 138.666667-36.266667 179.2-93.866666l32-166.4-42.666666-81.066667-192-89.6zM217.6 324.266667l132.266667 32 29.866666-149.333334c-19.2-14.933333-40.533333-21.333333-64-21.333333-57.6 0-104.533333 46.933333-104.533333 104.533333 0 10.666667 2.133333 23.466667 6.4 34.133334zM352 390.4l-145.066667-34.133333c-59.733333 19.2-100.266667 76.8-100.266666 138.666666 0 59.733333 36.266667 115.2 93.866666 136.533334l185.6-166.4-34.133333-74.666667zM674.133333 674.133333l-29.866666 149.333334c19.2 14.933333 40.533333 21.333333 61.866666 21.333333 57.6 0 104.533333-46.933333 104.533334-104.533333 0-12.8-2.133333-25.6-6.4-36.266667l-130.133334-29.866667zM823.466667 398.933333l-189.866667 166.4 38.4 74.666667 145.066667 34.133333c59.733333-19.2 100.266667-76.8 100.266666-138.666666 0-59.733333-36.266667-113.066667-93.866666-136.533334z" p-id="11466" fill="#F2D162"></path></svg>

<svg class="icon" viewBox="0 0 1024 1024" xmlns="http://www.w3.org/2000/svg" width="200" height="200"><defs><style/></defs><path d="M418.133 454.4l192 87.467L804.267 371.2c2.133-14.933 4.266-27.733 4.266-42.667 0-119.466-96-217.6-217.6-217.6-72.533 0-138.666 34.134-179.2 93.867l-32 166.4 38.4 83.2zm-10.666 32L217.6 657.067c-2.133 14.933-4.267 29.866-4.267 42.666 0 119.467 98.134 217.6 217.6 217.6 72.534 0 138.667-36.266 179.2-93.866l32-166.4L599.467 576l-192-89.6zM217.6 324.267l132.267 32 29.866-149.334c-19.2-14.933-40.533-21.333-64-21.333-57.6 0-104.533 46.933-104.533 104.533 0 10.667 2.133 23.467 6.4 34.134zM352 390.4l-145.067-34.133c-59.733 19.2-100.266 76.8-100.266 138.666 0 59.734 36.266 115.2 93.866 136.534l185.6-166.4L352 390.4zm322.133 283.733l-29.866 149.334c19.2 14.933 40.533 21.333 61.866 21.333 57.6 0 104.534-46.933 104.534-104.533 0-12.8-2.134-25.6-6.4-36.267l-130.134-29.867zm149.334-275.2L633.6 565.333 672 640l145.067 34.133c59.733-19.2 100.266-76.8 100.266-138.666 0-59.734-36.266-113.067-93.866-136.534z" fill="#F2D162"/></svg>
